**kern	**kern	**kern	**kern	**dynam
*part4	*part3	*part2	*part1	*part1
*staff4	*staff3	*staff2	*staff1	*
*I"Cello	*I"Viola	*I"2nd Violin	*I"1st Violin	*
*clefF4	*clefC3	*clefG2	*clefG2	*
*k[b-e-a-]	*k[b-e-a-]	*k[b-e-a-]	*k[b-e-a-]	*
*E-:	*E-:	*E-:	*E-:	*
*M4/4	*M4/4	*M4/4	*M4/4	*
*met(c)	*met(c)	*met(c)	*met(c)	*
=1	=1	=1	=1	=1
(4E-	[4B-	(4e-	(4g	.
8DL)	8B-L]	8fL)	8a-L)	.
16.r	16.r	16.r	16.r	.
32E-Jkk	32B-Jkk	32e-Jkk	32gJkk	.
.	32qqB-/	32qqe-/	32qqg/	.
8BB-'L	8A-'L	8d'L	8f'L	.
8EE-'J	8G'J	8e-'J	8e-'J	.
4r	4r	4r	8r	.
.	.	.	(8G	.
=2	=2	=2	=2	=2
2r	2r	2r	8B-L	.
.	.	.	8e-	.
.	.	.	8g	.
.	.	.	8b-J)	.
!	!	!LO:TX:a:i:t=cresc.	!	!
4C	4E-	4G	4ee-	.
4D	4F	4B-	4b-	.
=3	=3	=3	=3	=3
8E-L	8B-'L	16.e-LL	16.gtLL	.
.	.	32fJk	32a-Jk	.
8EE-J	8e-'J	8gJ	8b-J	.
4r	4r	4r	4r	.
8r	8r	8r	(4.cc	.
(8BB-	(8G	(8en	.	.
4AA-)	4A-)	4f)	.	.
.	.	.	8cc-X)	.
=4	=4	=4	=4	=4
8r	8r	8r	([4b-	.
(8AA-	(8FL	(8dL	.	.
4GG)	8G	8e-X	16b-LL]	.
.	.	.	16an	.
.	8E-J)	8B-J)	16a-X	.
.	.	.	16gJJ)	.
8AA-	8C	8c	(8f	.
8r	8r	8r	4a-	.
8BB-	8F	8A-	.	.
8r	8r	8r	8d)	.
=5	=5	=5	=5	=5
4EE-	4E-	4G	8.e-L	.
.	.	.	(16B-Jk	.
4r	4r	4r	16e-LL	.
!	!	!	!LO:TX:b:i:t=cresc.	!
.	.	.	16g	.
.	.	.	16b-	.
.	.	.	16ee-JJ)	.
(4e-	[4b-	(4ee-	(4gg	.
8dL)	8b-L]	8ffL)	8aa-L)	.
16.r	16.r	16.r	16.r	.
32e-Jkk	32b-Jkk	32ee-Jkk	32ggJkk	.
=6	=6	=6	=6	=6
.	16qqb-/	16qqee-/	.	.
8B-'L	8a-'L	8dd'L	8ff'L	.
8E-'J	8g'J	8ee-'J	8ee-'J	.
4r	4r	4r	8r	.
.	.	.	(8e-	.
2r	2r	2r	8gL	.
.	.	.	8bn	.
.	.	.	8cc	.
.	.	.	8ee-J)	.
=7	=7	=7	=7	=7
!	!	!LO:TX:a:i:t=cresc.	!	!
8C	16r	16r	[4gg	.
.	16cLL	16e-LL	.	.
8r	16c	16e-	.	.
.	16cJJ	16e-JJ	.	.
8C	16r	16r	16ggLL]	.
.	16BnLL	16dLL	(32ffL	.
.	.	.	32een	.
8r	16B	16d	32ff	.
.	.	.	32gg	.
.	16BJJ	16dJJ	32aa-	.
.	.	.	32ggJJJ)	.
8C	16r	16r	(8ggL	.
.	16cLL	(16e-LL	.	.
8r	16c	16g)	[8ee-XJ)	.
.	16cJJ	16gJJ	.	.
8F	16r	16r	16ee-LL]	.
.	16A-LL	(16a-LL	(16ddJ	.
8r	16A-	16d)	[8ffJ)	.
.	16A-JJ	16dJJ	.	.
=8	=8	=8	=8	=8
8G	16r	16r	16ffLL]	.
.	(16GLL	(16e-LL	(16ccJ	.
8r	16c)	16g)	[8ee-J)	.
.	16cJJ	16gJJ	.	.
8GG	16r	16r	16ee-LL]	.
.	(16dLL	16fLL	(16bnJ	.
8r	16Bn)	16f	[8ddJ)	.
.	16BnJJ	16fJJ	.	.
4C	16r	16r	32ddLLL]	.
.	.	.	32ff	.
.	(16BnLL	(16fLL	32ee-	.
.	.	.	32ddJJ)	.
.	16c	16e-)	[8ccJ	.
!	!LO:TX:b:i:t=cresc.	!	!	!
.	16B-XJJ)	[16e-JJ	.	.
!LO:TX:b:i:t=cresc.	!	!LO:TX:b:i:t=cresc.	!	!
4F	(16AnLL	16e-LL]	32ccLLL]	.
.	.	.	(32b-X	.
!	!	!LO:TX:a:i:t=cresc.	!	!
.	16c	(16e-	32an	.
.	.	.	32b-	.
.	16An	16c	32cc	.
.	.	.	32dd	.
.	16FJJ)	16AnJJ)	32ee-	.
.	.	.	32ccJJJ)	.
=9	=9	=9	=9	=9
8BB-	16r	16r	[4ff	.
.	16B-LL	16dLL	.	.
8r	16B-	16d	.	.
.	16B-JJ	16dJJ	.	.
8BB-	16r	16r	32ffLLL]	.
.	.	.	(32ee-	.
.	16AnLL	(16e-LL	32dd	.
.	.	.	32cc	.
8r	(16An	16d	32dd	.
.	.	.	32ee-	.
.	16cJJ)	16anJJ)	32ff	.
.	.	.	32ggJJJ)	.
8BB-	16r	16r	(16.ffLL	.
.	16dLL	16b-LL	.	.
.	.	.	32ddJk)	.
8r	16d	16b-	8ffJ	.
.	16dJJ	16b-JJ	.	.
8E-	16r	16r	24r	.
.	.	.	24ccLL	.
.	16e-LL	16gLL	.	.
.	.	.	24ddJJ	.
8r	16c	16g	24ee-LL	.
.	.	.	24ff	.
.	16cJJ	16e-JJ	.	.
.	.	.	24ggJJ	.
=10	=10	=10	=10	=10
(4F	16r	16r	24r	.
.	.	.	(24b-'LL	.
.	16B-LL	(16dLL	.	.
.	.	.	24cc'JJ	.
.	16B-	16f)	24dd'LL	.
.	.	.	24ee-'	.
.	16dJJ	16fJJ	.	.
.	.	.	24ff'JJ)	.
4F#X	16r	16r	24r	.
.	.	.	(24ee-'LL	.
.	16AnLL	(16cLL	.	.
.	.	.	24dd'	.
.	16An	16e-)	24cc'	.
.	.	.	24b-'	.
.	16cJJ	16e-JJ	.	.
.	.	.	24an'JJ)	.
4G	16r	16r	(16.b-LL	.
.	16enLL	(16d-XLL	.	.
.	.	.	32ddd-XJJk)	.
!	!	!	!LO:TX:b:i:t=cresc.	!
.	16en	16B-)	(4ddd-	.
!	!LO:TX:b:i:t=cresc.	!	!	!
.	16enJJ	16B-JJ	.	.
!LO:TX:b:i:t=cresc.	!	!LO:TX:b:i:t=cresc.	!	!
4Fn)	16r	16r	.	.
.	16fLL	(16B-LL	.	.
.	16f	16d-X)	16cccLL	.
.	16fJJ	16d-XJJ	16bb-JJ)	.
=11	=11	=11	=11	=11
.	.	.	32qqaan/LLL	.
.	.	.	32qqbb-/	.
.	.	.	32qqccc/JJJ	.
(8EnL	16r	16r	[8bb-L	.
.	(16gLL	16d-XLL	.	.
8FJ	16f)	16d-X	(32bb-LL]	.
.	.	.	32aa-X	.
.	16fJJ	16d-XJJ	32gg-X	.
.	.	.	32ffJJJ	.
4G-X)	16r	16r	16eenLL)	.
.	(16B-LL	(16dd-XLL	16een'	.
.	16An	16cc	16een'	.
.	16B-JJ)	16b-JJ)	16een'JJ	.
(8.FL	(4c	(4an	[2ff	.
32G-XLL	.	.	.	.
32FJJJ)	.	.	.	.
(32E-XLLL	4d-X)	4b-)	.	.
32D-X	.	.	.	.
32C	.	.	.	.
32BB-	.	.	.	.
32AAn	.	.	.	.
32BB-	.	.	.	.
32D-X	.	.	.	.
32BB-JJJ)	.	.	.	.
=12	=12	=12	=12	=12
(4AAn	(4cc	(4ee-	(8.ffL]	.
.	.	.	32eenLL	.
.	.	.	32ffJJJ)	.
4BB-)	4b-)	4dd-X)	(32gg-XLLL	.
.	.	.	32ff	.
.	.	.	32ee-X	.
.	.	.	32dd-X	.
.	.	.	32cc	.
.	.	.	32b-	.
.	.	.	32dd-X	.
.	.	.	32b-JJJ)	.
(8.FL	(4An	(4e-	2f	.
32EnLL	.	.	.	.
32FJJJ)	.	.	.	.
(32G-XLLL	4B-)	4d-X)	.	.
32F	.	.	.	.
32E-X	.	.	.	.
32D-XJJJ	.	.	.	.
32C-XLLL	.	.	.	.
32BB-	.	.	.	.
32D-X	.	.	.	.
32BB-JJJ)	.	.	.	.
=13	=13	=13	=13	=13
(4AAn	(4E-	(4c	(8.g-XL	.
.	.	.	32fLL	.
.	.	.	32e-JJJ)	.
4GGn)	4En)	4B-)	(32e-LLL	.
.	.	.	32d-X	.
.	.	.	32c	.
.	.	.	32B-	.
.	.	.	32An	.
.	.	.	32B-	.
.	.	.	32A	.
.	.	.	32B-JJJ)	.
8FF	16FLL	8AnL	8cL	.
.	16fJ	.	.	.
8r	[8fJ	16r	16r	.
.	.	(16B-Jk	(16d-XJk	.
4r	16fLL]	8AnL)	8cL)	.
.	16fJ	.	.	.
.	[8fJ	16r	16r	.
.	.	(16b-Jk	(16dd-XJk	.
=14	=14	=14	=14	=14
4r	16fLL]	8anL)	8ccL)	.
.	16fJJ	.	.	.
!	!LO:TX:b:i:t=cresc.	!	!	!
.	(4f	16r	16r	.
.	.	(16bnJk	(16ddnJk	.
16r	.	4cc)	4ee-)	.
!LO:TX:b:i:t=cresc.	!	!	!	!
(16FLL	.	.	.	.
16G	16enLL	.	.	.
16AnJJ)	16e-XJJ)	.	.	.
(16B-'LL	(16d'LL	4r	2r	.
16B-'	16d'	.	.	.
16B-'	16d'	.	.	.
16B-'JJ	16d'JJ	.	.	.
16B-'LL	16d'LL	(16f'LL	.	.
16B-'	16d'	16f'	.	.
16B-'	16d'	16f'	.	.
16B-'JJ)	16d'JJ)	16f'JJ)	.	.
=15	=15	=15	=15	=15
(16B-'LL	(16d-X'LL	(16f'LL	4.ggn	.
16B-'	16d-'	16f'	.	.
16B-'	16d-'	16f'	.	.
16B-'JJ)	16d-'JJ)	16f'JJ)	.	.
(16B-'LL	(16c'LL	(16en'LL	.	.
16B-'	16c'	16e'	.	.
16B-'	16c'	16e'	(32ffLLL	.
.	.	.	32een	.
16B-'JJ)	16c'JJ)	16e'JJ)	32dd	.
.	.	.	32ccJJJ)	.
(16A'LL	(16c'LL	(16f'LL	(8ccL	.
16A'	16c'	16f'	.	.
16A'	16c'	16f'	8ffJ)	.
16A'JJ)	16c'JJ)	16f'JJ)	.	.
(16A-X'LL	(16c'LL	(16f'LL	4r	.
16A-'	16c'	16f'	.	.
16A-'	16c'	16e-X'	.	.
16A-'JJ)	16c'JJ)	16e-'JJ)	.	.
=16	=16	=16	=16	=16
(16A-'LL	(16c-'LL	(16e-'LL	4.ff	.
16A-'	16c-'	16e-'	.	.
16A-'	16c-'	16e-'	.	.
16A-'JJ)	16c-'JJ)	16e-'JJ)	.	.
(16A-'LL	(16B-'LL	(16d'LL	.	.
16A-'	16B-'	16d'	.	.
16A-'	16B-'	16d'	(32ee-XLLL	.
.	.	.	32dd	.
16A-'JJ)	16B-'JJ)	16d'JJ)	32cc	.
.	.	.	32b-JJJ)	.
8G	8B-	8e-	(8b-L	.
8r	8r	8r	16ee-Jk)	.
.	.	.	16r	.
8r	(16.AnLL	(16.cLL	(16.ee-LL	.
.	32B-k	32dk	32ddk	.
8r	16cnJJ)	16e-JJ)	16ccJJ)	.
.	16r	16r	32r	.
.	.	.	32cc	.
=17	=17	=17	=17	=17
8BB-	(16.B-LL	(16.dLL	(16.ffLL	.
.	32ck	32e-k	32ee-k	.
8r	16dJJ)	16fJJ)	16ddJJ)	.
.	16r	16r	32r	.
.	.	.	32dd	.
16E-	16c	16e-	16ggKL	.
16r	16r	16r	16r	.
16F	16c	16e-	16anJk	.
16r	16r	16r	16rE	.
4BB-	16B-LL	16dLL	8b-	.
.	(16b-'	(16dd'	.	.
.	16b-'	16dd'	8r	.
.	16b-'JJ	16dd'JJ	.	.
4r	16b-'LL	16dd'LL	(16ff'LL	.
.	16b-'	16dd'	16ff'	.
.	16b-'	16dd'	16ff'	.
.	16b-'JJ)	16dd'JJ)	16ff'JJ)	.
=18	=18	=18	=18	=18
4.g	(16b-'LL	(16dd-X'LL	(16ff'LL	.
.	16b-'	16dd-'	16ff'	.
.	16b-'	16dd-'	16ff'	.
.	16b-'JJ)	16dd-'JJ)	16ff'JJ)	.
.	(16b-'LL	(16cc'LL	(16een'LL	.
.	16b-'	16cc'	16ee'	.
(32fLLL	16b-'	16cc'	16ee'	.
32en	.	.	.	.
32d	16b-'JJ)	16cc'JJ)	16ee'JJ)	.
32cJJJ)	.	.	.	.
(8cL	(16b-'LL	(16cc'LL	(16ff'LL	.
.	16b-'	16cc'	16ff'	.
8fJ)	16an'	16cc'	16ff'	.
.	16a'JJ)	16cc'JJ)	16ff'JJ)	.
4r	(16a-X'LL	(16cc'LL	(16ff'LL	.
.	16a-'	16cc'	16ff'	.
.	16a-'	16cc'	16ee-X'	.
.	16a-'JJ)	16cc'JJ)	16ee-'JJ)	.
=19	=19	=19	=19	=19
4.f	(16a-'LL	(16cc-X'LL	(16ee-'LL	.
.	16a-'	16cc-'	16ee-'	.
.	16a-'	16cc-'	16ee-'	.
.	16a-'JJ)	16cc-'JJ)	16ee-'JJ)	.
.	(16a-'LL	(16b-'LL	(16dd'LL	.
.	16a-'	16b-'	16dd'	.
(32e-XLLL	16a-'	16b-'	16dd'	.
32d	.	.	.	.
32c	16a-'JJ)	16b-'JJ)	16dd'JJ)	.
32B-JJJ)	.	.	.	.
(8B-L	(16a-'LL	(16b-'LL	4ee-	.
.	16a-'	16b-'	.	.
16e-Jk)	16g'	16b-'	.	.
16r	16g'JJ)	16b-'JJ)	.	.
8F	16.cLL	16.e-LL	(32ccLLL	.
.	.	.	32dd	.
.	.	.	32ee-	.
.	32B-k	32dk	32eenJJ	.
8r	16AnJJ	16cJJ	8ffJ)	.
.	32r	32r	.	.
.	32An	32c	.	.
=20	=20	=20	=20	=20
8BB-	(16.dLL	(16.fLL	(32ffLLL	.
.	.	.	32gg	.
.	.	.	32aa-X	.
.	32ck	32e-k	32aanJ	.
8r	16B-JJ)	16dJJ)	16bb-JJ)	.
.	32r	32r	16r	.
.	32B-	32d	.	.
16E-	16B-	16g	4r	.
16r	16r	16r	.	.
16F	16An	16e-	.	.
16r	16r	16r	.	.
8G	8B-	8d	4r	.
8r	8r	8r	.	.
(32CLLL	8r	(16.ccLL	(16.ee-XLL	.
32D	.	.	.	.
32E-	.	.	.	.
32EnJ	.	32b-k	32ddk	.
16FJJ)	32fLLL	16anJJ)	16ccJJ)	.
.	32en	.	.	.
16r	32f	32r	32r	.
.	32e-XJJJ	32an	32cc	.
=21	=21	=21	=21	=21
(32DLLL	8dL	(16.ddLL	(16.ffLL	.
32E-X	.	.	.	.
32F	.	.	.	.
32F#XJ	.	32cck	32ee-k	.
16GJJ)	32gLL	16b-JJ)	16ddJJ)	.
.	32f#X	.	.	.
16r	32g	16r	32r	.
.	32fnJJJ	.	32dd	.
16E-	16e-	16b-	16gg	.
16r	16r	16r	16r	.
16Fn	16c	16e-	16an	.
16r	16r	16r	16r	.
16B-LL	32r	32r	(4b-	.
.	(32B-LLL	(32dLLL	.	.
16B-	32d	32f	.	.
.	32B-JJJ	32dJJJ	.	.
16B-	32dLLL	32fLLL	.	.
.	32B-	32d	.	.
16B-JJ	32d	32f	.	.
.	32B-JJJ)	32dJJJ)	.	.
16GLL	32r	32r	4bn)	.
.	(32GLLL	(32dLLL	.	.
16G	32d	32f	.	.
.	32GJJJ	32dJJJ	.	.
16G	32dLLL	32fLLL	.	.
.	32G	32d	.	.
16GJJ	32d	32f	.	.
.	32GJJJ)	32dJJJ)	.	.
=22	=22	=22	=22	=22
16E-LL	32r	32r	(16ccLL	.
.	(32GLLL	(32e-LLL	.	.
16E-	32c	32g	16ee-J)	.
.	32G	32e-	.	.
16E-	32c	32g	[8ggJ	.
.	32G	32e-	.	.
16E-JJ	32c	32g	.	.
.	32B-JJJ)	32e-JJJ)	.	.
16FLL	32r	32r	(16ggLL]	.
.	(32AnLLL	(32cLLL	.	.
16F	32c	32e-	32ffL	.
.	32An	32c	32ee-JJJ	.
16F	32c	32e-	32ddLLL	.
.	32An	32c	32cc	.
16FJJ	32c	32e-	32b-X	.
.	32FJJJ)	32cJJJ)	32anJJJ)	.
16BB-LL	32r	32r	(4b-	.
.	(32FLLL	(32dLLL	.	.
16BB-	32d	32f	.	.
.	32B-	32d	.	.
16BB-	32d	32f	.	.
.	32B-	32d	.	.
16BB-JJ	32d	32f	.	.
.	32B-JJJ)	32dJJJ)	.	.
16GGLL	32r	32r	4bn)	.
.	(32GLLL	(32dLLL	.	.
16GG	32d	32f	.	.
.	32G	32d	.	.
16GG	32d	32f	.	.
.	32G	32d	.	.
16GGJJ	32d	32f	.	.
.	32GJJJ)	32dJJJ)	.	.
=23	=23	=23	=23	=23
16EE-LL	32r	32r	(24ccLL	.
.	(32GLLL	(32e-LLL	.	.
.	.	.	24ee-	.
16EE-	32c	32g	.	.
.	.	.	24ggJ)	.
.	32GJJJ	32e-JJJ	.	.
16EE-	32cLLL	32gLLL	[8ggJ	.
.	32G	32e-	.	.
16EE-JJ	32c	32g	.	.
.	32B-JJJ)	32e-JJJ)	.	.
16FFLL	32r	32r	(16ggLL]	.
.	(32AnLLL	(32cLLL	.	.
16FF	32c	32e-	32ffL	.
.	32AnJJJ	32cJJJ	32ee-JJJ	.
16FF	32cLLL	32e-LLL	32ddLLL	.
.	32An	32c	32cc	.
16FFJJ	32c	32e-	32b-X	.
.	32FJJJ)	32cJJJ)	32anJJJ)	.
16BB-	(32FLLL	(32dLLL	16b-	.
.	32D	32f	.	.
16r	32F	32d	16r	.
.	32DJJJ)	32B-JJJ)	.	.
16FF	16E-	16An	(32ccLLL	.
.	.	.	32ee-	.
16r	16r	16r	32dd	.
.	.	.	32ccJJJ	.
16BB-	32D'LLL	(32B-LLL	16b-)	.
.	(32D	32f	.	.
16r	32F	32d	16r	.
.	32DJJJ)	32B-JJJ)	.	.
16FF	16E-	16An	(32ccLLL	.
.	.	.	32ee-	.
16r	16r	16r	32dd	.
.	.	.	32ccJJJ)	.
=24	=24	=24	=24	=24
4BB-	(32DLLL	(32B-LLL	16b-	.
.	32C	32An	.	.
.	32E-	32c	16r	.
.	32DJJJ	32B-JJJ	.	.
.	16F)	16d)	(32ddLLL	.
.	.	.	32cc	.
.	16r	16r	32ee-	.
.	.	.	32ddJJJ)	.
4BB-	(32B-LLL	(32dLLL	16ff	.
.	32An	32c	.	.
.	32c	32e-	16r	.
.	32B-JJJ	32dJJJ	.	.
.	16d)	16f)	(32ffLLL	.
.	.	.	32een	.
.	16r	16r	32gg	.
.	.	.	32ffJJJ)	.
!LO:TX:b:i:t=cresc.	!LO:TX:b:i:t=cresc.	!LO:TX:b:i:t=cresc.	!LO:TX:b:i:t=cresc.	!
2BB-	(4d	(4B-	(32aa-XLLL	.
.	.	.	32gg	.
.	.	.	32bb-	.
.	.	.	32aa-JJJ	.
.	.	.	32ggLLL	.
.	.	.	32ff	.
.	.	.	32ee-X	.
.	.	.	32ddJJJ	.
.	8e-L	8cL	32ccLLL	.
.	.	.	32b-	.
.	.	.	32an	.
.	.	.	32b-JJJ	.
.	8fJ)	8dJ)	32anLLL	.
.	.	.	32b-	.
.	.	.	32cc	.
.	.	.	32a-XJJJ)	.
=25	=25	=25	=25	=25
(4E-	[4B-	(4e-	(4g	.
8DL)	8B-]	8fL)	8a-L)	.
16.r	8r	16.r	16.r	.
32E-Jkk	.	32e-Jkk	32gJkk	.
.	16qqB-/	8qqe-/	8qqg/	p
8BB-'L	8A-X'L	8d'L	8fL	.
8EE-'J	8G'J	8e-'J	8e-J	.
4r	4r	4r	8r	.
.	.	.	(8G	.
=26	=26	=26	=26	=26
2r	2r	2r	8B-L	.
.	.	.	8e-	.
.	.	.	8g	.
.	.	.	8b-J)	.
!	!	!LO:TX:a:i:t=cresc.	!	!
4C	4E-	4G	4ee-	.
4D	4F	4B-	4b-	.
=27	=27	=27	=27	=27
8E-'L	8B-'L	16.e-TLL	16.gtLL	.
.	.	32fJk	32a-Jk	.
8EE-'	8e-'J	8gJ	8b-J	.
8r	4r	4r	8r	.
(8GGJ	.	.	(8e-	.
!	!	!LO:TX:a:i:t=cresc.	!	!
8BB-L	4r	4r	8gL	.
!LO:TX:b:i:t=cresc.	!	!	!	!
8E-	.	.	8b-	.
8G	8r	8r	8ee-	.
8B-J)	(8b-	(8dd-X	8ggJ)	.
=28	=28	=28	=28	=28
8d-X'L	8gL	8b-L	16.bb-TLL	.
.	.	.	32cccJk	p
!	!LO:TX:b:i:t=cresc.	!LO:TX:b:i:t=cresc.	!	!
8D-X'J	8en	8g	8ddd-XJ	.
4r	8d-X	8en	8r	.
.	8B-J)	8d-XJ)	8en	.
8C'L	(8GL	16.eentLL	8gL	.
.	.	32ffJk	.	.
8CC'J	8EnJ)	8ggJ	8b-	.
4r	4r	4r	8een	.
.	.	.	8ggJ	.
=29	=29	=29	=29	=29
8F	16r	16r	[4ccc	.
.	16fLL	16a-LL	.	.
8r	16f	16a-	.	.
.	16fJJ	16a-JJ	.	.
8F	16r	16r	16cccLL]	.
.	16enLL	16gLL	(32bb-L	.
.	.	.	32aanJJJ	.
8r	16e	16g	32bb-LLL	.
.	.	.	32ccc	.
.	16eJJ	16gJJ	32ddd-X	.
.	.	.	32cccJJJ)	.
8F	16r	16r	(8cccL	.
.	16fLL	(16a-LL	.	.
8r	16f	16cc)	[8aa-XJ)	.
.	16fJJ	16ccJJ	.	.
8BB-	16r	16r	16aa-LL]	.
.	16d-XLL	(16b-LL	(16ggJ	.
8r	16d-	16g)	[8bb-J)	.
.	16d-JJ	16gJJ	.	.
=30	=30	=30	=30	=30
8C	16r	16r	16bb-LL]	.
.	16cLL	(16a-LL	(16ffJ	.
8r	16c	16f)	[8aa-J)	.
.	16cJJ	16fJJ	.	.
8C	16r	16r	16aa-LL]	.
.	16B-LL	(16gLL	(16eenJ	.
8r	16B-	16en)	[8ggJ)	.
.	16B-JJ	16enJJ	.	.
!	!	!	!LO:TX:b:i:t=cresc.	!
(4FF	16r	16r	(32ggLLL]	.
.	.	.	32bb-	.
.	(16B-LL	(16enLL	32aa-	.
.	.	.	32ggJJ)	.
.	16A-)	16f	[8ffJ	.
.	([16A-JJ	16e-XJJ	.	.
!LO:TX:a:i:t=cresc.	!	!	!	!
!LO:TX:b:i:t=cresc.	!	!LO:TX:b:i:t=cresc.	!	!
4BB-)	16A-LL]	16dLL	32ffLLL]	.
.	.	.	(32ee-X	.
.	16F	16a-	32dd	.
.	.	.	32ee-JJJ	.
.	16Dn	16f	32ffLLL	.
.	.	.	32gg	.
.	16FJJ)	16dJJ)	32aa-	.
.	.	.	32ffJJJ)	.
=31	=31	=31	=31	=31
4EE-	16r	16r	[4bb-	.
.	16GLL	16e-LL	.	.
.	16G	16e-	.	.
.	16GJJ	16e-JJ	.	.
4EE-	16r	16r	(32bb-LLL]	.
.	.	.	32aa-	.
.	16FLL	16dLL	32gg	.
.	.	.	32ffJJJ	.
.	16F	16d	32ggLLL	.
.	.	.	32aa-	.
.	16FJJ	16dJJ	32bb-	.
.	.	.	32cccJJJ)	.
4EE-	16r	16r	(16.bb-LL	.
.	16GLL	16e-LL	.	.
.	.	.	32ggJk)	.
.	16G	16e-	8bb-J	.
.	16GJJ	16e-JJ	.	.
(4A-	16r	16r	24r	.
.	.	.	24ffLL	.
.	(16a-LL	16ccLL	.	.
.	.	.	24ggJJ	.
.	16f)	(16cc	24aa-LL	.
.	.	.	24bb-	.
.	16fJJ	16a-JJ)	.	.
.	.	.	24cccJJ	.
=32	=32	=32	=32	=32
4B-	16r	16r	24r	.
.	.	.	24ee-LL	.
.	16e-LL	16gLL	.	.
.	.	.	24ffJJ	.
.	(16e-	(16g	24ggLL	.
.	.	.	24aa-	.
.	16gJJ)	16b-JJ)	.	.
.	.	.	24bb-JJ	.
4Bn	16r	16r	24r	.
.	.	.	24aa-LL	.
.	16dLL	(16fLL	.	.
.	.	.	24ggJJ	.
.	(16d	16a-)	24ffLL	.
.	.	.	24ee-	.
.	16fJJ)	16a-JJ	.	.
.	.	.	24ddJJ	.
4c	16r	16r	(16.ffLL	.
.	16g-XLL	16anLL	.	.
.	.	.	32ee-Jk)	.
.	16g-	16an	(8.ee-J	.
.	16g-JJ	16anJJ	.	.
!LO:TX:b:i:t=cresc.	!	!	!	!
4B-X)	16r	16r	.	.
.	16g-LL	16b-LL	16eee-LL)	.
!	!LO:TX:b:i:t=cresc.	!	!	!
!	!LO:TX:a:i:t=cresc.	!	!LO:TX:b:i:t=cresc.	!
.	16g-	16b-	16eee-'	.
.	16g-JJ	16b-JJ	16eee-'JJ	.
=33	=33	=33	=33	=33
(8AnL	16rc	16r	([8eee-L	.
.	16g-XLL	(16ccLL	.	.
8B-J	16g-	16b-)	32eee-LL]	.
.	.	.	32ddd-X	.
.	16g-JJ	16b-JJ	32bbn	.
.	.	.	32bb-XJJJ	.
4c-X)	16r	16r	16aanLL)	.
.	(16e-LL	(16gg-XLL	16aan	.
.	16d	16ff	16aan	.
.	16e-JJ)	16ee-JJ)	16aanJJ	.
(8.B-L	(4f	(4dd	[2bb-	.
32c-LL	.	.	.	.
32B-JJJ	.	.	.	.
32A-XLLL	4g-)	4ee-)	.	.
32G-X	.	.	.	.
32F	.	.	.	.
32E-	.	.	.	.
32D	.	.	.	.
32E-	.	.	.	.
32G-	.	.	.	.
32E-JJJ)	.	.	.	.
=34	=34	=34	=34	=34
(4D	(4a-	(4ff	(8.bb-L]	.
.	.	.	32aanLL	.
.	.	.	32bb-JJJ)	.
4E-)	4g-X)	4ee-)	(32ccc-XLLL	.
.	.	.	32bb-	.
.	.	.	32aa-X	.
.	.	.	32gg-XJJJ	.
.	.	.	32ffLLL	.
.	.	.	32ee-	.
.	.	.	32gg-	.
.	.	.	32ee-JJJ)	.
(8.B-L	(4d	(4a-X	2b-	.
32AnLL	.	.	.	.
32B-JJJ)	.	.	.	.
(32c-XLLL	4e-)	4g-X)	.	.
32B-	.	.	.	.
32A-X	.	.	.	.
32G-XJJJ	.	.	.	.
32FLLL	.	.	.	.
32E-	.	.	.	.
32G-	.	.	.	.
32E-JJJ)	.	.	.	.
=35	=35	=35	=35	=35
(4D	4A-	(4f	(8.cc-XL	.
.	.	.	32b-LL	.
.	.	.	32a-JJJ)	.
4C)	(8AnL	4e-)	(32a-LLL	.
.	.	.	32g-X	.
.	.	.	32f	.
.	.	.	32e-JJJ	.
.	8cJ)	.	32dLLL	.
.	.	.	32e-	.
.	.	.	32d	.
.	.	.	32e-JJJ)	.
16BB-'LL	8F	8dL	8fL	.
16BB-'J	.	.	.	.
8BB-'J	8r	16r	16r	.
.	.	(16e-Jk	(16g-Jk	.
4r	16r	8dL)	8fL)	.
.	16B-KL	.	.	.
.	[8B-J	16r	16r	.
.	.	(16ee-Jk	(16gg-XJk	.
=36	=36	=36	=36	=36
4r	16B-LL]	8ddL)	8ffL)	.
!	!LO:TX:b:i:t=cresc.	!	!	!
.	16b-JJ	.	.	.
.	(4b-	16r	16r	.
.	.	16eenJk	(16ggnJk	.
16r	.	4ff	4aa-)	.
(16B-'LL	.	.	.	.
!LO:TX:b:i:t=cresc.	!	!	!	!
16c'	16an'LL	.	.	.
16d'JJ)	16a-X'JJ)	.	.	.
(16e-'LL	(16g'LL	4r	2r	.
16e-'	16g'	.	.	.
16e-'	16g'	.	.	.
16e-'JJ)	16g'JJ)	.	.	.
(16e-'LL	(16g'LL	(16b-'LL	.	.
16e-'	16g'	16b-'	.	.
16e-'	16g'	16b-'	.	.
16e-'JJ)	16g'JJ)	16b-'JJ)	.	.
=37	=37	=37	=37	=37
(16e-'LL	(16g-X'LL	(16b-'LL	4.ccc	.
16e-'	16g-'	16b-'	.	.
16e-'	16g-'	16b-'	.	.
16e-'JJ)	16g-'JJ)	16b-'JJ)	.	.
(16e-'LL	(16f'LL	(16an'LL	.	.
16e-'	16f'	16a'	.	.
16e-'	16f'	16a'	(32bb-LLL	.
.	.	.	32aan	.
16e-'JJ)	16f'JJ)	16a'JJ)	32gg	.
.	.	.	32ffJJJ)	.
(16d'LL	(16f'LL	(16b-'LL	(8ffL	.
16d'	16f'	16b-'	.	.
16d'	16f'	16b-'	8bb-J)	.
16d'JJ)	16f'JJ)	16b-'JJ)	.	.
(16d-X'LL	(16f'LL	(16b-'LL	4r	.
16d-X'	16f'	16b-'	.	.
16d-X'	16f'	16a-X'	.	.
16d-X'JJ)	16f'JJ)	16a-'JJ)	.	.
=38	=38	=38	=38	=38
(16d-X'LL	(16en'LL	(16a-'LL	4.bb-	.
16d-'	16e'	16a-'	.	.
16d-'	16e'	16a-'	.	.
16d-'JJ)	16e'JJ)	16a-'JJ)	.	.
(16d-'LL	(16e-X'LL	(16g'LL	.	.
16d-'	16e-'	16g'	.	.
16d-'	16e-'	16g'	(32aa-LLL	.
.	.	.	32gg	.
16d-'JJ)	16e-'JJ)	16g'JJ)	32ff	.
.	.	.	32ee-JJJ)	.
8c	8e-	8a-	(8ee-L	.
8r	8r	8r	16aa-Jk)	.
.	.	.	16r	.
8B-	(16.dLL	(16.fLL	(16.aa-LL	.
.	32e-Jk	32gk	32ggk	.
8r	8fJ)	16a-JJ)	16ffJJ)	.
.	.	16r	32r	.
.	.	.	32ff	.
=39	=39	=39	=39	=39
8E-	(16.e-LL	(16.gLL	(16.bb-LL	.
.	32fk	32a-k	32aa-k	.
8r	16gJJ)	16b-JJ)	16ggJJ)	.
.	16r	16r	32r	.
.	.	.	32gg	.
16A-	16f	16a-	16cccKL	.
16r	16r	16r	16r	.
16B-	16f	16g	16ddJk	.
16r	16r	16r	16r	.
4E-	16e-'LL	16g'LL	4ee-	.
.	16e-'	16g'	.	.
.	16e-'	16g'	.	.
.	16e-'JJ	16g'JJ	.	.
16r	16e-'LL	16g'LL	16b-'LL	.
8r	16e-'	16g'	16b-'	.
.	16e-'	16g'	16b-'	.
16r	16e-'JJ	16g'JJ	16b-'JJ	.
=40	=40	=40	=40	=40
4.c	16e-'LL	16g-X'LL	16b-'LL	.
.	16e-'	16g-'	16b-'	.
.	16e-'	16g-'	16b-'	.
.	16e-'JJ	16g-'JJ	16b-'JJ	.
.	16e-'LL	16f'LL	16an'LL	.
.	16e-'	16f'	16a'	.
(32B-LLL	16e-'	16f'	16a'	.
32An	.	.	.	.
32G	16e-'JJ	16f'JJ	16a'JJ	.
32FJJJ)	.	.	.	.
(8FL	16e-'LL	16f'LL	16b-'LL	.
.	16e-'	16f'	16b-'	.
8B-J)	16d'	16f'	16b-'	.
.	16d'JJ	16f'JJ	16b-'JJ	.
4r	16d-X'LL	16f'LL	16b-'LL	.
.	16d-'	16f'	16b-'	.
.	16d-'	16f'	16a-X'	.
.	16d-'JJ	16f'JJ	16a-'JJ	.
=41	=41	=41	=41	=41
4.B-	16d-X'LL	16en'LL	16a-'LL	.
.	16d-'	16e'	16a-'	.
.	16d-'	16e'	16a-'	.
.	16d-'JJ	16e'JJ	16a-'JJ	.
.	16d-'LL	16e-X'LL	16g'LL	.
.	16d-'	16e-'	16g'	.
(32A-LLL	16d-'	16e-'	16g'	.
32G	.	.	.	.
32F	16d-'JJ	16e-'JJ	16g'JJ	.
32E-JJJ)	.	.	.	.
(8E-L	16d-'LL	16e-'LL	4a-	.
.	16d-'	16e-'	.	.
16A-Jk)	16c'	16e-'	.	.
16r	16c'JJ	16e-'JJ	.	.
8BB-	(16.fLL	(16.a-LL	(32ffLLL	.
.	.	.	32gg	.
.	.	.	32aa-	.
.	32e-k	32gk	32aanJJ	.
8r	16dnJJ)	16fJJ)	8bb-J)	.
.	32r	32r	.	.
.	32d	32f	.	.
=42	=42	=42	=42	=42
8EE-	(16.gLL	(16.b-LL	(32b-LLL	.
.	.	.	32cc	.
.	.	.	32dd-X	.
.	32fk	32a-k	32ddnJJ	.
8r	16e-JJ)	16gJJ)	8ee-J)	.
.	32r	32r	.	.
.	32e-	32g	.	.
16AA-	16e-	16cc	4r	.
16r	16r	16r	.	.
16BB-	16d	16a-	.	.
16r	16r	16r	.	.
8C	8e-	8g	4r	.
8r	8r	8r	.	.
(32FLLL	8r	(16.ffLL	(16.aa-LL	.
32G	.	.	.	.
32A-	.	.	.	.
32AnJJJ	.	32ee-k	32ggk	.
16B-)	(32b-LLL	16ddJJ)	16ffJJ)	.
.	32an	.	.	.
16r	32b-	32r	32r	.
.	32a-XJJJ	32dd	32ff	.
=43	=43	=43	=43	=43
(32GLLL	16g)	(16.ggLL	(16.bb-LL	.
32A-	.	.	.	.
32B-	16r	.	.	.
32BnJ	.	32ffk	32aa-k	.
16cJJ)	(32ccLLL	16ee-JJ)	16ggJJ)	.
.	32bn	.	.	.
16r	32cc	32r	32r	.
.	32b-XJJJ	32ee-	32gg	.
16A-	16a-)	16ee-	16ccc	.
16r	16r	16r	16r	.
16B-X	16f	16b-	16dd	.
16r	16r	16r	16r	.
16E-LL	32r	32r	(4ee-	.
.	(32e-LLL	(32gLLL	.	.
16E-	32g	32b-	.	.
.	32e-	32g	.	.
16E-	32g	32b-	.	.
.	32e-	32g	.	.
16E-JJ	32g	32b-	.	.
.	32e-JJJ)	32gJJJ)	.	.
16CLL	32r	32r	4een)	.
.	(32B-LLL	(32gLLL	.	.
16C	32g	32b-	.	.
.	32B-	32g	.	.
16C	32g	32b-	.	.
.	32B-	32g	.	.
16CJJ	32g	32b-	.	.
.	32B-JJJ)	32gJJJ)	.	.
=44	=44	=44	=44	=44
16AA-LL	32r	32r	(16ffLL	.
.	(32cLLL	(32a-LLL	.	.
16AA-	32f	32cc	16aa-J)	.
.	32c	32a-	.	.
16AA-	32f	32cc	[8cccJ	.
.	32c	32a-	.	.
16AA-JJ	32f	32cc	.	.
.	32cJJJ)	32a-JJJ)	.	.
16BB-LL	32r	32r	(16cccLL]	.
.	(32dLLL	(32fLLL	.	.
16BB-	32f	32a-	32bb-L	.
.	32d	32f	32aa-JJJ	.
(16BB-	32f	32a-	32ggLLL	.
.	32d	32f	32ff	.
16BBnJJ)	32f	32a-	32ee-)	.
.	32A-JJJ)	32fJJJ)	32ddJJJ	.
16CLL	32r	32r	8ee-	.
.	(32GLLL	(32e-LLL	.	.
16C	32e-	32g	.	.
.	32G	32e-	.	.
16C	32e-	32g	(4e-	.
.	32G	32e-	.	.
16CJJ	32e-	32g	.	.
.	32GJJJ)	32e-JJJ)	.	.
16BB-XLL	32r	32r	.	.
.	(32GLLL	(32B-LLL	.	.
16BB-	32B-	32d-X	.	.
!	!	!LO:TX:a:i:t=cresc.	!	!
.	32G	32B-	.	.
16BB-	32B-	32d-X	8en)	.
.	32G	32B-	.	.
16BB-JJ	32B-	32d-X	.	.
.	32GJJJ)	32B-JJJ)	.	.
=45	=45	=45	=45	=45
16AA-LL	32r	32r	(24fLL	.
.	(32A-LLL	(32cLLL	.	.
.	.	.	24a-	.
16AA-	32c	32f	.	.
.	.	.	24ccJ)	.
.	32A-	32c	.	.
16AA-	32c	32f	[12.ccJ	.
.	32A-	32c	.	.
16AA-JJ	32c	32f	.	.
.	32A-JJJ)	32cJJJ)	.	.
16BB-LL	32r	32r	(16ccLL]	.
.	(32FLLL	(32dLLL	.	.
16BB-	32A-	32f	32b-L	.
.	32F	32d	32a-	.
16BB-	32D	32B-	32g	.
.	32F	32A-	32f	.
16BB-JJ	32A-	32B-	32e-	.
.	32FJJJ)	32A-JJJ)	32dJJJ)	.
16EE-	(32E-LLL	(32GLLL	16e-	.
.	32G	32e-	.	.
16r	32B-	32g	16r	.
.	32GJJJ)	32e-JJJ)	.	.
16BB-	16A-	16d	(32fLLL	.
.	.	.	32a-	.
16r	16r	16r	32g	.
.	.	.	32fJJJ)	.
16E-	(32GLLL	(32e-LLL	16e-	.
.	32B-	32g	.	.
16r	32e-	32b-	16r	.
.	32gJJJ)	32ee-JJJ)	.	.
16B-	16a-	16dd	(32ffLLL	.
.	.	.	32aa-	.
16r	16r	16r	32gg	.
.	.	.	32ffJJJ)	.
=46	=46	=46	=46	=46
4E-	(32GLLL	(32e-LLL	16ee-	.
.	32F	32d	.	.
.	32A-	32f	16r	.
.	32GJJJ)	32e-JJJ)	.	.
.	16B-	16g	(32ee-LLL	.
.	.	.	32dd	.
.	16r	16r	32ff	.
.	.	.	32ee-JJJ)	.
4E-	(32e-LLL	(32gLLL	16gg	.
.	32d	32f	.	.
.	32f	32a-	16r	.
.	32e-JJJ)	32gJJJ)	.	.
.	16g	16b-	(32ggLLL	.
.	.	.	32ff	.
.	16r	16r	32aa-	.
.	.	.	32ggJJJ)	.
4E-	(32gLLL	(32b-LLL	16bb-	.
.	32f	32a-	.	.
.	32a-	32cc	16r	.
.	32gJJJ)	32b-JJJ)	.	.
.	16b-	16dd-X	(32bb-LLL	.
.	.	.	32aa-	.
.	16r	16r	32ccc	.
.	.	.	32bb-JJJ)	.
4r	4r	4r	8ddd-X	.
.	.	.	8r	.
=47	=47	=47	=47	=47
8r	8r	8r	(4.cc	.
(8BB-	(8G	(8en	.	.
4AA-)	4A-)	4f)	.	.
.	.	.	8cc-X)	.
8r	8r	8r	[4b-	.
(8AA-	(8FL	(8dnL	.	.
4GG)	8G	8e-X	(16b-LL]	.
.	.	.	16an	.
.	8E-J)	8B-J)	16a-X	.
.	.	.	16gJJ)	.
=48	=48	=48	=48	=48
8AA-	8C	8c	(8f	.
8r	8r	8r	4a-	.
8BB-	8F	8A-	.	.
8r	8r	8r	8d)	.
4C	4E-	4G	8e-L	.
.	.	.	16r	.
.	.	.	(16ggJk	.
4r	4r	4r	16aa-LL	.
.	.	.	16aan	.
.	.	.	16bb-	.
.	.	.	16bbnJJ)	.
=49	=49	=49	=49	=49
2r	16r	16r	([4ccc	.
.	(16cLL	(16enLL	.	.
.	16d	16f	.	.
.	16enJJ	16gJJ	.	.
.	8f)	8a-)	16cccLL]	.
.	.	.	16gg	.
.	8r	8r	16aa-X	.
.	.	.	16aanJJ)	.
16r	16r	16r	([4bb-X	.
(16B-LL	(16dLL	(16b-LL	.	.
16An	16e-X	16cc	.	.
16A-XJJ)	16fJJ)	16ddJJ)	.	.
4G	8gL	8ee-L	16bb-LL]	.
.	.	.	16aan	.
.	8e-J	8b-J	16aa-X	.
.	.	.	16ggJJ)	.
=50	=50	=50	=50	=50
8A-	8c	8cc	(8ff	.
8r	8r	8r	4aa-	.
8B-	8f	8a-	.	.
8r	8r	8r	8dd)	.
4E-	(16e-LL	8.gL	8.ee-L	.
.	16B-	.	.	.
.	16e-	.	.	.
.	16gJJ)	(16b-Jk	(16ee-Jk	.
8r	[4b-	16ee-LL	16ggLL	.
.	.	16gg	16bb-	.
8B-	.	16ff	16aa-	.
.	.	16ddJJ)	16ffJJ)	.
=51	=51	=51	=51	=51
4e-	16b-LL]	8.ee-L	8.ee-L	.
.	(16b-	.	.	.
.	16g	.	.	.
.	16e-JJ)	(16GJk	(16e-Jk	.
8r	(8.B-L	16e-LL	16gLL	.
.	.	16g	16b-	.
8BB-	.	16f	16a-	.
.	16A-Jk)	16dJJ)	16fJJ)	.
4E-	4G	4e-	8.e-L	.
.	.	.	(16GJk	f
4r	4r	4r	16B-LL	.
.	.	.	16e-	.
.	.	.	16g	.
.	.	.	16b-JJ)	.
=52	=52	=52	=52	=52
4CC	4E-	4G	4ee-	.
4DD	4F	4B-	4b-	.
8EE-'L	8B-'L	16.e-TLL	16.gtLL	.
.	.	32fJk	32a-Jk	.
8E-'J	8e-'J	8gJ	8b-J	.
4r	4r	4r	4r	.
=53	=53	=53	=53	=53
.	(16qqB-/	(16qqe-/	(16qqg/	pp
8BB-L	8A-L)	8dL)	8fL)	.
!LO:TX:b:i:t=staccato	!LO:TX:b:i:t=staccato	!LO:TX:b:i:t=staccato	!LO:TX:b:i:t=staccato	!
.	(16qqB-/	(16qqe-/	(16qqg/	.
8BB-	8A-J)	8dJ)	8fJ)	.
.	(16qqB-/	(16qqe-/	(16qqg/	.
8BB-	8A-L)	8dL)	8fL)	.
(8BB-J	(8A-J	(8dJ	(8b-J	.
8E-)	8G)	8e-)	8e-)	.
8r	8r	8r	8r	.
4r	4r	4r	4r	.
==	==	==	==	==
*-	*-	*-	*-	*-
!!!system-decoration: [(s1,s2,s3,s4)]
